packages/kaspersky-hexa-ui-icons/src/iconsSVGs/24/ShieldDangerSolid.svg

<svg width="24" height="24" viewBox="0 0 24 24" fill="none" xmlns="http://www.w3.org/2000/svg">
<path fill-rule="evenodd" clip-rule="evenodd" d="M11.0997 2.3516C11.6774 2.05174 12.3648 2.05174 12.9425 2.3516L19.5029 5.75693C19.8342 5.92892 20.0422 6.27116 20.0422 6.64448V11.8148C20.0422 12.812 19.9295 13.8914 19.5121 14.9175C18.3866 17.6846 16.6035 19.4407 15.1016 20.5022C14.3517 21.0322 13.6698 21.3908 13.1694 21.6189C12.9189 21.7331 12.7129 21.815 12.5652 21.8697C12.3901 21.9346 12.2103 22 12.0211 22C11.844 22 11.6732 21.9433 11.507 21.8881C11.3562 21.8379 11.1465 21.7621 10.8919 21.6543C10.3833 21.4391 9.69148 21.0949 8.93197 20.5711C7.40804 19.5202 5.61429 17.7471 4.49525 14.8687C4.10685 13.8696 4 12.8253 4 11.8567V6.64448C4 6.27116 4.20795 5.92892 4.53929 5.75693L11.0997 2.3516ZM9.29289 9.29291C9.68342 8.90238 10.3166 8.90238 10.7071 9.29291L12 10.5858L13.2929 9.29291C13.6834 8.90238 14.3166 8.90238 14.7071 9.29291C15.0976 9.68343 15.0976 10.3166 14.7071 10.7071L13.4142 12L14.7071 13.2929C15.0976 13.6834 15.0976 14.3166 14.7071 14.7071C14.3166 15.0976 13.6834 15.0976 13.2929 14.7071L12 13.4142L10.7071 14.7071C10.3166 15.0976 9.68342 15.0976 9.29289 14.7071C8.90237 14.3166 8.90237 13.6834 9.29289 13.2929L10.5858 12L9.29289 10.7071C8.90237 10.3166 8.90237 9.68343 9.29289 9.29291Z" fill="black"/>
</svg>

<svg xmlns="http://www.w3.org/2000/svg" width="24" height="24" fill="none" viewBox="0 0 24 24"><path fill="#000" fill-rule="evenodd" d="M11.0997 2.3516a2 2 0 0 1 1.8428 0l6.5604 3.4053a1 1 0 0 1 .5393.8876v5.1703c0 .9972-.1127 2.0766-.5301 3.1027-1.1255 2.7671-2.9086 4.5232-4.4105 5.5847-.7499.53-1.4318.8886-1.9322 1.1167a9 9 0 0 1-.6042.2508c-.1751.0649-.3549.1303-.5441.1303-.1771 0-.3479-.0567-.5141-.1119a8.4 8.4 0 0 1-.6151-.2338c-.5086-.2152-1.2004-.5594-1.96-1.0832-1.5239-1.0509-3.3176-2.824-4.4366-5.7024C4.1068 13.8696 4 12.8253 4 11.8567V6.6445a1 1 0 0 1 .5393-.8876zM9.2929 9.2929c.3905-.3905 1.0237-.3905 1.4142 0L12 10.5858l1.2929-1.2929c.3905-.3905 1.0237-.3905 1.4142 0s.3905 1.0237 0 1.4142L13.4142 12l1.2929 1.2929c.3905.3905.3905 1.0237 0 1.4142s-1.0237.3905-1.4142 0L12 13.4142l-1.2929 1.2929c-.3905.3905-1.0237.3905-1.4142 0s-.3905-1.0237 0-1.4142L10.5858 12l-1.293-1.2929c-.3904-.3905-.3904-1.0237 0-1.4142"/></svg>
